assets/images/logo-uni-inacap.svg

<svg fill="none" height="26" viewBox="0 0 96 26" width="96" xmlns="http://www.w3.org/2000/svg" xmlns:xlink="http://www.w3.org/1999/xlink"><clipPath id="a"><path d="m0 0h96v26h-96z"/></clipPath><g clip-path="url(#a)" fill="#001b3c"><path d="m0 0h20.3712v20.4038h-3.4214v-13.08072h-3.3831v13.08072h-13.5667z"/><path d="m27.1638 20.4115v-10.1616h2.7686c.9907 0 1.632.15 1.9085.4731.2227.2692.3456.8885.3456 1.8577v7.8308h3.4867v-8.2731c0-1.7385-.4224-2.97695-1.2864-3.69618s-2.2502-1.08846-4.1818-1.08846h-6.455v13.05774z"/><path d="m43.4038 17.8076c-.6451 0-1.1097-.0961-1.4092-.2731-.2688-.1692-.4186-.5423-.4186-1.0884 0-.5731.2227-.9693.6912-1.1654.2957-.1269.7642-.2 1.3862-.2h4.0551v2.7269zm1.1636-7.7538c1.2134 0 2.0313.173 2.4729.5192.4455.35.6682.9961.6682 1.9077h-4.5504c-1.6551 0-2.8915.2461-3.7095.7423-.9945.6192-1.5052 1.7346-1.5052 3.3231 0 1.1884.3724 2.1307 1.0867 2.8269.7181.6923 1.7088 1.0385 2.9683 1.0385h9.2275v-8.177c0-3.24613-1.7817-4.88074-5.3721-4.88074h-7.0464v2.70004z"/><path d="m61.3833 17.6078c-1.7318 0-2.9184-.4-3.5865-1.1923-.4455-.5462-.6682-1.3846-.6682-2.5039 0-1.5577.4224-2.6038 1.2365-3.1461.5683-.3692 1.5821-.5692 3.0182-.5692h3.6096v-2.8462h-4.6272c-2.6918 0-4.6003.76538-5.7139 2.27692-.768 1.06538-1.1635 2.50388-1.1635 4.31158 0 2.0077.5952 3.5884 1.7549 4.7307 1.1673 1.1654 2.8723 1.7346 5.1225 1.7346h4.6272v-2.8h-3.6096z"/><path d="m72.1342 17.8076c-.6412 0-1.1136-.0961-1.4092-.2731-.2727-.1692-.4186-.5423-.4186-1.0884 0-.5731.2227-.9693.6912-1.1654.2957-.1269.7642-.2 1.3862-.2h4.0551v2.7269zm1.1636-7.7538c1.2134 0 2.0275.173 2.4729.5192.4416.35.6643.9961.6643 1.9077h-4.5504c-1.655 0-2.8915.2461-3.7094.7423-.9907.6192-1.5053 1.7346-1.5053 3.3231 0 1.1884.3725 2.1307 1.0867 2.8269.7181.6923 1.705 1.0385 2.9684 1.0385h9.2275v-8.177c0-3.24613-1.7818-4.88074-5.3683-4.88074h-7.0503v2.70004z"/><path d="m92.3641 13.9423c0 1.6884-.3955 2.7538-1.2135 3.2231-.5184.2961-1.6588.4461-3.4368.4461h-1.2864v-7.4077l1.2634-.0269c1.7587-.0269 2.9184.1731 3.4906.5231.7872.4923 1.1827 1.5807 1.1827 3.2423zm-5.9367 12.0577v-5.5885h2.9952c2.569 0 4.4007-.7692 5.4912-2.3308.7181-1.0384 1.0906-2.4038 1.0906-4.0615 0-2.1308-.5722-3.7654-1.6819-4.92692-1.1136-1.16538-2.6765-1.73461-4.6771-1.73461h-6.6317v18.64233z"/></g></svg>

<svg width="96" height="26" viewBox="0 0 96 26" fill="none" xmlns="http://www.w3.org/2000/svg">
<g clip-path="url(#clip0_2418_8177)">
<path d="M0 0H20.3712V20.4038H16.9498V7.32308H13.5667V20.4038H0V0Z" fill="#001B3C"/>
<path d="M27.1638 20.4115V10.2499H29.9324C30.9231 10.2499 31.5644 10.3999 31.8409 10.723C32.0636 10.9922 32.1865 11.6115 32.1865 12.5807V20.4115H35.6732V12.1384C35.6732 10.3999 35.2508 9.16145 34.3868 8.44222C33.5228 7.72299 32.1366 7.35376 30.205 7.35376H23.75V20.4115H27.1638Z" fill="#001B3C"/>
<path d="M43.4038 17.8076C42.7587 17.8076 42.2941 17.7115 41.9946 17.5345C41.7258 17.3653 41.576 16.9922 41.576 16.4461C41.576 15.873 41.7987 15.4768 42.2672 15.2807C42.5629 15.1538 43.0314 15.0807 43.6534 15.0807H47.7085V17.8076H43.4038ZM44.5674 10.0538C45.7808 10.0538 46.5987 10.2268 47.0403 10.573C47.4858 10.923 47.7085 11.5691 47.7085 12.4807H43.1581C41.503 12.4807 40.2666 12.7268 39.4486 13.223C38.4541 13.8422 37.9434 14.9576 37.9434 16.5461C37.9434 17.7345 38.3158 18.6768 39.0301 19.373C39.7482 20.0653 40.7389 20.4115 41.9984 20.4115H51.2259V12.2345C51.2259 8.98837 49.4442 7.35376 45.8538 7.35376H38.8074V10.0538H44.5674Z" fill="#001B3C"/>
<path d="M61.3833 17.6078C59.6515 17.6078 58.4649 17.2078 57.7968 16.4155C57.3513 15.8693 57.1286 15.0309 57.1286 13.9116C57.1286 12.3539 57.551 11.3078 58.3651 10.7655C58.9334 10.3963 59.9472 10.1963 61.3833 10.1963H64.9929V7.3501H60.3657C57.6739 7.3501 55.7654 8.11548 54.6518 9.62702C53.8838 10.6924 53.4883 12.1309 53.4883 13.9386C53.4883 15.9463 54.0835 17.527 55.2432 18.6693C56.4105 19.8347 58.1155 20.4039 60.3657 20.4039H64.9929V17.6039H61.3833V17.6078Z" fill="#001B3C"/>
<path d="M72.1342 17.8076C71.493 17.8076 71.0206 17.7115 70.725 17.5345C70.4523 17.3653 70.3064 16.9922 70.3064 16.4461C70.3064 15.873 70.5291 15.4768 70.9976 15.2807C71.2933 15.1538 71.7618 15.0807 72.3838 15.0807H76.4389V17.8076H72.1342ZM73.2978 10.0538C74.5112 10.0538 75.3253 10.2268 75.7707 10.573C76.2123 10.923 76.435 11.5691 76.435 12.4807H71.8846C70.2296 12.4807 68.9931 12.7268 68.1752 13.223C67.1845 13.8422 66.6699 14.9576 66.6699 16.5461C66.6699 17.7345 67.0424 18.6768 67.7566 19.373C68.4747 20.0653 69.4616 20.4115 70.725 20.4115H79.9525V12.2345C79.9525 8.98837 78.1707 7.35376 74.5842 7.35376H67.5339V10.0538H73.2978Z" fill="#001B3C"/>
<path d="M92.3641 13.9423C92.3641 15.6307 91.9686 16.6961 91.1506 17.1654C90.6322 17.4615 89.4918 17.6115 87.7138 17.6115H86.4274V10.2038L87.6908 10.1769C89.4495 10.15 90.6092 10.35 91.1814 10.7C91.9686 11.1923 92.3641 12.2807 92.3641 13.9423ZM86.4274 26V20.4115H89.4226C91.9916 20.4115 93.8233 19.6423 94.9138 18.0807C95.6319 17.0423 96.0044 15.6769 96.0044 14.0192C96.0044 11.8884 95.4322 10.2538 94.3225 9.09228C93.2089 7.9269 91.646 7.35767 89.6454 7.35767H83.0137V26H86.4274Z" fill="#001B3C"/>
</g>
<defs>
<clipPath id="clip0_2418_8177">
<rect width="96" height="26" fill="white"/>
</clipPath>
</defs>
</svg>
